CSETWebApi/CSETWeb_Api/CSETWeb_ApiCore/Diagram/src/main/webapp/img/lib/mscae/Gateway.svg

<svg xmlns="http://www.w3.org/2000/svg" width="42" height="48" fill-rule="evenodd"><path d="M17 35L4 48h34L25 35h-8z" fill="#59b4d9"/><path d="M21 0C6.1 0 0 10.5 0 21v24.9L1 47l13-13v-8c0-5 2-8 7-8s7 3 7 8v8l13 13 1-1.1V20C42 9.5 35.9 0 21 0z" fill="#7a7a7a"/></svg>

<?xml version="1.0" encoding="UTF-8" standalone="no"?>
<svg
   xmlns:dc="http://purl.org/dc/elements/1.1/"
   xmlns:cc="http://creativecommons.org/ns#"
   xmlns:rdf="http://www.w3.org/1999/02/22-rdf-syntax-ns#"
   xmlns:svg="http://www.w3.org/2000/svg"
   xmlns="http://www.w3.org/2000/svg"
   xmlns:sodipodi="http://sodipodi.sourceforge.net/DTD/sodipodi-0.dtd"
   xmlns:inkscape="http://www.inkscape.org/namespaces/inkscape"
   version="1.1"
   id="Layer_1"
   x="0px"
   y="0px"
   width="42"
   height="48"
   viewBox="0 0 42 48"
   enable-background="new 0 0 50 50"
   xml:space="preserve"
   inkscape:version="0.91 r13725"
   sodipodi:docname="gateway_50.svg"><metadata
     id="metadata11"><rdf:RDF><cc:Work
         rdf:about=""><dc:format>image/svg+xml</dc:format><dc:type
           rdf:resource="http://purl.org/dc/dcmitype/StillImage" /><dc:title></dc:title></cc:Work></rdf:RDF></metadata><defs
     id="defs9" /><sodipodi:namedview
     pagecolor="#ffffff"
     bordercolor="#666666"
     borderopacity="1"
     objecttolerance="10"
     gridtolerance="10"
     guidetolerance="10"
     inkscape:pageopacity="0"
     inkscape:pageshadow="2"
     inkscape:window-width="1920"
     inkscape:window-height="1018"
     id="namedview7"
     showgrid="false"
     fit-margin-top="0"
     fit-margin-left="0"
     fit-margin-right="0"
     fit-margin-bottom="0"
     inkscape:zoom="7.3282407"
     inkscape:cx="29.28107"
     inkscape:cy="22.029164"
     inkscape:window-x="-8"
     inkscape:window-y="-8"
     inkscape:window-maximized="1"
     inkscape:current-layer="Layer_1" /><path
     d="M 17,35 4,48 38,48 25,35 17,35 Z"
     id="path3"
     inkscape:connector-curvature="0"
     style="clip-rule:evenodd;fill:#59b4d9;fill-rule:evenodd" /><path
     d="M 21,0 C 6.1,0 0,10.5 0,21 L 0,45.9 1,47 14,34 C 14,34 14,30.5 14,26 14,21 16,18 21,18 26,18 28,21 28,26 28,30.5 28,34 28,34 L 41,47 42,45.9 42,20 C 42,9.5 35.9,0 21,0 Z"
     id="path5"
     inkscape:connector-curvature="0"
     style="clip-rule:evenodd;fill:#7a7a7a;fill-rule:evenodd" /></svg>
